storage/app/icons/phosphoricons/light/folder-plus-light.svg

<svg xmlns="http://www.w3.org/2000/svg" fill="currentColor" viewBox="0 0 256 256"><path d="M216 74h-85.51l-27.9-27.9a13.94 13.94 0 0 0-9.9-4.1H40a14 14 0 0 0-14 14v144.62A13.39 13.39 0 0 0 39.38 214h177.51A13.12 13.12 0 0 0 230 200.89V88a14 14 0 0 0-14-14M40 54h52.69a2 2 0 0 1 1.41.59L113.51 74H38V56a2 2 0 0 1 2-2m178 146.89a1.11 1.11 0 0 1-1.11 1.11H39.38a1.4 1.4 0 0 1-1.38-1.38V86h178a2 2 0 0 1 2 2ZM158 144a6 6 0 0 1-6 6h-18v18a6 6 0 0 1-12 0v-18h-18a6 6 0 0 1 0-12h18v-18a6 6 0 0 1 12 0v18h18a6 6 0 0 1 6 6"/></svg>

<svg xmlns="http://www.w3.org/2000/svg" viewBox="0 0 256 256" fill="currentColor"><path d="M216,74H130.49l-27.9-27.9a13.94,13.94,0,0,0-9.9-4.1H40A14,14,0,0,0,26,56V200.62A13.39,13.39,0,0,0,39.38,214H216.89A13.12,13.12,0,0,0,230,200.89V88A14,14,0,0,0,216,74ZM40,54H92.69a2,2,0,0,1,1.41.59L113.51,74H38V56A2,2,0,0,1,40,54ZM218,200.89a1.11,1.11,0,0,1-1.11,1.11H39.38A1.4,1.4,0,0,1,38,200.62V86H216a2,2,0,0,1,2,2ZM158,144a6,6,0,0,1-6,6H134v18a6,6,0,0,1-12,0V150H104a6,6,0,0,1,0-12h18V120a6,6,0,0,1,12,0v18h18A6,6,0,0,1,158,144Z"/></svg>
